X:1
T:Title
%%score { ( 1 3 ) | ( 2 4 ) }
L:1/8
Q:1/4=90
M:2/4
K:F
V:1 treble nm="Grand Piano"
V:3 treble 
V:2 bass 
V:4 bass 
V:1
 Ac cc | Ac c2 | Ac cc | [Ed][EG] [EG]2 | [EG][FA] [GB][GB] | [EG][FA] [GB]2 | %6
w: Wm.~Swindells * * *||||||
 [GB][FA] [G,EG][G,DF] | %7
w: |
[M:17/32][K:bass] [G,CE]/-<[G,CE]/[F,=B,D]/-<[F,B,D]/ z/4 z/4 z/4 z/4 z/4 z/4 z/4 z/ |[M:1/16] F/ | %9
w: ||
[M:2/4][K:treble] (7:8:6F3/4F/4-F3/4 F/4-FF/ | (5:4:4FF3/2 F/- F2 | %11
w: ||
 (7:8:6[EG]3/4[EG]/4-[EG]3/4 [EG]3/4[EG]/[EG]/ | (7:8:6[EG]3/4[EG]/4-[EG]3/4 [EG]/4-[EG]A/ | %13
w: ||
 (7:8:6A3/4c/4-c3/4 c/4-cA/ | (5:4:4Ac3/2 c/- c2 | (5:4:4[Dd][DB]3/2 [EG]E3/2 | %16
w: |||
[M:5/8] G-G/4 z/4 z/ z z2 |] %17
w: |
V:2
 [F,CF][F,A,F] [F,A,F][F,A,F] | [F,CF][F,A,F] [F,A,F]2 | [F,CF][F,A,F] [F,A,F][F,A,F] | %3
 [C,C][C,C] [C,C]2 | [C,C][C,C] [C,C][C,C] | [C,C][C,C] [C,C]2 | [C,C][C,C] C,C, | %7
[M:17/32] z/4 z/4 z/4 z/4 z/4 z/4 z/ C,/4-C,/4-C,/4-C,/4-C,/4-C,/-<C,/- |[M:1/16] C,/4 z/4 | %9
[M:2/4] (7:8:6[F,A,C]3/4[F,A,C]/4-[F,A,C]3/4 [F,A,C]/4-[F,A,C][F,A,C]/ | %10
 (5:4:4[F,A,C][F,A,C]3/2 [F,A,C]/- [F,A,C]2 | (7:8:6[C,C]3/4[C,C]/4-[C,C]3/4 [C,C]3/4[C,C]/[C,C]/ | %12
 (7:8:6[C,C]3/4[C,C]/4-[C,C]3/4 [C,C]/4-[C,C][F,CF]/ | %13
 (7:8:6[F,CF]3/4[F,A,F]/4-[F,A,F]3/4 [F,A,F]/4-[F,A,F][F,CF]/ | %14
 (5:4:4[F,CF][F,A,F]3/2 [F,A,F]/- [F,A,F]2 | (5:4:4[B,,B,][B,,B,]3/2 [C,B,][C,B,]3/2 | %16
[M:5/8] B,-[F,-A,-B,C-]/<[F,A,C]/ [F,A,C]3 |] %17
V:3
 x4 | x4 | x4 | x4 | x4 | x4 | x4 | %7
[M:17/32][K:bass] z/4 z/4 z/4 z/4 z/4 z/4 z/ [E,C]/4-[E,C]/4-[E,C]/4-[E,C]/4-[E,C]/4-[E,C]/-<[E,C]/- | %8
[M:1/16] [E,C]/4 z/4 |[M:2/4][K:treble] x4 | x4 | x4 | x4 | x4 | x4 | x4 |[M:5/8] z F F3 |] %17
V:4
 x4 | x4 | x4 | x4 | x4 | x4 | x4 |[M:17/32] G,,/-<G,,/G,,/-<G,,/ z/4 z/4 z/4 z/4 z/4 z/4 z/4 z/ | %8
[M:1/16] F,/ |[M:2/4] x4 | x4 | x4 | x4 | x4 | x4 | x4 |[M:5/8] [F,C] z z z2 |] %17

